web/public/assets/conversion-growth.svg

<svg fill="none" height="44" viewBox="0 0 44 44" width="44" xmlns="http://www.w3.org/2000/svg"><rect fill="#f1f1f1" height="44" rx="22" width="44"/><path d="m23.0159 22.1228v.5024 2.1549.1675-2.3112c.0116-.171.0116-.3426 0-.5136zm-.5471-1.5743c.1531.162.2743.3514.3573.5583-.0717-.2125-.1944-.4041-.3573-.5583z" fill="#1a1a1a"/><path d="m25.7179 14.2403h-2.9252c-2.8695 0-4.1981 1.3398-4.2093 4.1757-2.8471 0-4.1757 1.351-4.1757 4.2092v2.9141c0 2.8806 1.3398 4.2204 4.2092 4.2204h2.9253c2.8582 0 4.198-1.3286 4.2204-4.1757 2.847 0 4.1534-1.3622 4.1645-4.1981v-2.9252c0-2.8806-1.3398-4.2204-4.2092-4.2204zm-1.5631 11.3102c0 1.9985-.6141 2.6126-2.6126 2.6126h-2.9253c-1.9985 0-2.6014-.6141-2.6014-2.6126v-2.9141c0-2.0097.6029-2.6126 2.6014-2.6126h2.9253c.3975-.0088.7946.0286 1.1835.1116.3234.0565.6227.2081.8597.4355.1629.1541.2855.3458.3573.5582.0326.0796.0588.1618.0781.2457.0175.0959.0287.1929.0335.2902 0 .1452 0 .3015.0558.469.0117.171.0117.3426 0 .5136zm4.1757-4.1646c0 1.9874-.6029 2.5903-2.5679 2.6015v-1.351c0-2.8806-1.351-4.2204-4.2204-4.2204h-1.3622c0-1.965.6253-2.5679 2.6127-2.5679h2.9252c1.9985 0 2.6126.614 2.6126 2.6126z" fill="#1a1a1a"/><g fill="#2667ff"><path d="m33.6786 25.2044c-.0089 2.1993-.8872 4.3059-2.4435 5.86-1.5562 1.5542-3.664 2.4297-5.8633 2.4356-.1415-.0015-.2801-.0403-.4018-.1125-.1216-.0722-.2221-.1753-.2912-.2988-.0691-.1234-.1044-.2629-.1023-.4044s.0415-.2799.1142-.4013l1.1165-1.8757c.0543-.0909.1259-.1703.2108-.2335s.1814-.1091.2841-.135c.1026-.0259.2094-.0314.3141-.016.1048.0153.2055.0511.2964.1054.0909.0542.1702.1258.2334.2107s.1091.1815.135.2841c.026.1027.0314.2094.0161.3141-.0153.1048-.0512.2055-.1054.2964l-.2903.4801c1.4687-.3445 2.7782-1.1746 3.7164-2.3559.9381-1.1813 1.4501-2.6448 1.453-4.1533 0-.2132.0847-.4177.2355-.5685.1507-.1507.3552-.2354.5684-.2354s.4177.0847.5684.2354c.1508.1508.2355.3553.2355.5685z"/><path d="m19.5883 11.717-1.1165 1.8757c-.1288.1378-.3019.2259-.4891.2489s-.3765-.0205-.5349-.1229c-.1583-.1025-.2756-.2574-.3313-.4375-.0557-.1802-.0463-.3743.0266-.5482l.2903-.4801c-1.4743.3458-2.7879 1.1808-3.7267 2.369s-1.4474 2.6594-1.4427 4.1737c0 .2132-.0847.4177-.2354.5685-.1508.1507-.3553.2354-.5685.2354s-.4176-.0847-.5684-.2354c-.1508-.1508-.2354-.3553-.2355-.5685.003-2.1992.878-4.3075 2.433-5.8626 1.5551-1.5551 3.6634-2.43 5.8627-2.433.1407-.0004.2789.0365.4006.1072.1216.0706.2223.1724.2916.2947.0656.1282.095.2717.0852.4153-.0099.1436-.0586.2818-.141.3998z"/></g></svg>

<svg width="44" height="44" viewBox="0 0 44 44" fill="none" xmlns="http://www.w3.org/2000/svg">
<rect width="44" height="44" rx="22" fill="#F1F1F1"/>
<path d="M23.0159 22.1228C23.0159 22.2791 23.0159 22.4466 23.0159 22.6252V24.7801C23.0159 24.8359 23.0159 24.8917 23.0159 24.9476V22.6364C23.0275 22.4654 23.0275 22.2938 23.0159 22.1228ZM22.4688 20.5485C22.6219 20.7105 22.7431 20.8999 22.8261 21.1068C22.7544 20.8943 22.6317 20.7027 22.4688 20.5485Z" fill="#1A1A1A"/>
<path d="M25.7179 14.2403H22.7927C19.9232 14.2403 18.5946 15.5801 18.5834 18.416C15.7363 18.416 14.4077 19.767 14.4077 22.6252V25.5393C14.4077 28.4199 15.7475 29.7597 18.6169 29.7597H21.5422C24.4004 29.7597 25.7402 28.4311 25.7626 25.584C28.6096 25.584 29.916 24.2218 29.9271 21.3859V18.4607C29.9271 15.5801 28.5873 14.2403 25.7179 14.2403ZM24.1548 25.5505C24.1548 27.549 23.5407 28.1631 21.5422 28.1631H18.6169C16.6184 28.1631 16.0155 27.549 16.0155 25.5505V22.6364C16.0155 20.6267 16.6184 20.0238 18.6169 20.0238H21.5422C21.9397 20.015 22.3368 20.0524 22.7257 20.1354C23.0491 20.1919 23.3484 20.3435 23.5854 20.5709C23.7483 20.725 23.8709 20.9167 23.9427 21.1291C23.9753 21.2087 24.0015 21.2909 24.0208 21.3748C24.0383 21.4707 24.0495 21.5677 24.0543 21.665C24.0543 21.8102 24.0543 21.9665 24.1101 22.134C24.1218 22.305 24.1218 22.4766 24.1101 22.6476L24.1548 25.5505ZM28.3305 21.3859C28.3305 23.3733 27.7276 23.9762 25.7626 23.9874V22.6364C25.7626 19.7558 24.4116 18.416 21.5422 18.416H20.18C20.18 16.451 20.8053 15.8481 22.7927 15.8481H25.7179C27.7164 15.8481 28.3305 16.4621 28.3305 18.4607V21.3859Z" fill="#1A1A1A"/>
<path d="M33.6786 25.2044C33.6697 27.4037 32.7914 29.5103 31.2351 31.0644C29.6789 32.6186 27.5711 33.4941 25.3718 33.5C25.2303 33.4985 25.0917 33.4597 24.97 33.3875C24.8484 33.3153 24.7479 33.2122 24.6788 33.0887C24.6097 32.9653 24.5744 32.8258 24.5765 32.6843C24.5786 32.5428 24.618 32.4044 24.6907 32.283L25.8072 30.4073C25.8615 30.3164 25.9331 30.237 26.018 30.1738C26.1029 30.1106 26.1994 30.0647 26.3021 30.0388C26.4047 30.0129 26.5115 30.0074 26.6162 30.0228C26.721 30.0381 26.8217 30.0739 26.9126 30.1282C27.0035 30.1824 27.0828 30.254 27.146 30.3389C27.2092 30.4238 27.2551 30.5204 27.281 30.623C27.307 30.7257 27.3124 30.8324 27.2971 30.9371C27.2818 31.0419 27.2459 31.1426 27.1917 31.2335L26.9014 31.7136C28.3701 31.3691 29.6796 30.539 30.6178 29.3577C31.5559 28.1764 32.0679 26.7129 32.0708 25.2044C32.0708 24.9912 32.1555 24.7867 32.3063 24.6359C32.457 24.4852 32.6615 24.4005 32.8747 24.4005C33.0879 24.4005 33.2924 24.4852 33.4431 24.6359C33.5939 24.7867 33.6786 24.9912 33.6786 25.2044Z" fill="#2667FF"/>
<path d="M19.5883 11.717L18.4718 13.5927C18.343 13.7305 18.1699 13.8186 17.9827 13.8416C17.7955 13.8646 17.6062 13.8211 17.4478 13.7187C17.2895 13.6162 17.1722 13.4613 17.1165 13.2812C17.0608 13.101 17.0702 12.9069 17.1431 12.733L17.4334 12.2529C15.9591 12.5987 14.6455 13.4337 13.7067 14.6219C12.7679 15.8101 12.2593 17.2813 12.264 18.7956C12.264 19.0088 12.1793 19.2133 12.0286 19.3641C11.8778 19.5148 11.6733 19.5995 11.4601 19.5995C11.2469 19.5995 11.0425 19.5148 10.8917 19.3641C10.7409 19.2133 10.6563 19.0088 10.6562 18.7956C10.6592 16.5964 11.5342 14.4881 13.0892 12.933C14.6443 11.3779 16.7526 10.503 18.9519 10.5C19.0926 10.4996 19.2308 10.5365 19.3525 10.6072C19.4741 10.6778 19.5748 10.7796 19.6441 10.9019C19.7097 11.0301 19.7391 11.1736 19.7293 11.3172C19.7194 11.4608 19.6707 11.599 19.5883 11.717Z" fill="#2667FF"/>
</svg>
